src/icons/profile.svg

<svg width="46" height="46" viewBox="0 0 46 46" fill="none" xmlns="http://www.w3.org/2000/svg"><path fill-rule="evenodd" clip-rule="evenodd" d="M23.1826 5.00195C14.3461 5.00195 7.18262 12.1654 7.18262 21.002V21.9375C4.21918 23.4102 2.18262 26.4682 2.18262 30.002C2.18262 34.9725 6.21206 39.002 11.1826 39.002H35.1826C40.1532 39.002 44.1826 34.9725 44.1826 30.002C44.1826 26.4682 42.1461 23.4102 39.1826 21.9375V21.002C39.1826 12.1654 32.0192 5.00195 23.1826 5.00195Z" fill="#9069CD"/><path d="M11.1826 21.002C11.1826 14.3745 16.5552 9.00195 23.1826 9.00195C29.81 9.00195 35.1826 14.3745 35.1826 21.002V29.002C35.1826 35.6294 29.81 41.002 23.1826 41.002C16.5552 41.002 11.1826 35.6294 11.1826 29.002V21.002Z" fill="#F3AD6D"/><path d="M7.18262 24.502C7.18262 22.0167 9.19734 20.002 11.6826 20.002H34.6826C37.1679 20.002 39.1826 22.0167 39.1826 24.502C39.1826 26.9872 37.1679 29.002 34.6826 29.002H11.6826C9.19734 29.002 7.18262 26.9872 7.18262 24.502Z" fill="#F3AD6D"/><path d="M18.1826 20.502C18.1826 19.6735 18.8542 19.002 19.6826 19.002C20.511 19.002 21.1826 19.6735 21.1826 20.502V24.502C21.1826 25.3304 20.511 26.002 19.6826 26.002C18.8542 26.002 18.1826 25.3304 18.1826 24.502V20.502Z" fill="#BF8034"/><path d="M24.1826 20.502C24.1826 19.6735 24.8542 19.002 25.6826 19.002C26.511 19.002 27.1826 19.6735 27.1826 20.502V24.502C27.1826 25.3304 26.511 26.002 25.6826 26.002C24.8542 26.002 24.1826 25.3304 24.1826 24.502V20.502Z" fill="#BF8034"/><path d="M17.1826 29.0445C17.1826 28.4687 17.6494 28.002 18.2252 28.002H27.1401C27.7159 28.002 28.1826 28.4687 28.1826 29.0445V29.502C28.1826 32.5395 25.7202 35.002 22.6826 35.002C19.6451 35.002 17.1826 32.5395 17.1826 29.502V29.0445Z" fill="white"/><path d="M7.18262 21.0062V21.002C7.18262 12.1654 14.3461 5.00195 23.1826 5.00195C26.0199 5.00195 28.6847 5.74049 30.9953 7.0358C29.7326 15.5 22.2386 22.002 13.1826 22.002C11.0788 22.002 9.05929 21.6511 7.18262 21.0062Z" fill="#9069CD"/></svg>

<svg xmlns="http://www.w3.org/2000/svg" width="42" height="36" viewBox="0 0 42 36">
    <g id="Group_1" data-name="Group 1" transform="translate(-2.183 -5.002)">
        <path id="Path_471" data-name="Path 471" d="M23.183,5a16,16,0,0,0-16,16v.935a9,9,0,0,0,4,17.064h24a9,9,0,0,0,4-17.064V21A16,16,0,0,0,23.183,5Z" fill="#3c372c" fill-rule="evenodd"/>
        <path id="Path_472" data-name="Path 472" d="M11.183,21a12,12,0,1,1,24,0v8a12,12,0,0,1-24,0Z" fill="#db985a"/>
        <path id="Path_473" data-name="Path 473" d="M7.183,24.5a4.5,4.5,0,0,1,4.5-4.5h23a4.5,4.5,0,0,1,0,9h-23A4.5,4.5,0,0,1,7.183,24.5Z" fill="#db985a"/>
        <path id="Path_474" data-name="Path 474" d="M18.183,20.5a1.5,1.5,0,0,1,3,0v4a1.5,1.5,0,0,1-3,0Z" fill="#bf8034"/>
        <path id="Path_475" data-name="Path 475" d="M24.183,20.5a1.5,1.5,0,0,1,3,0v4a1.5,1.5,0,0,1-3,0Z" fill="#bf8034"/>
        <path id="Path_476" data-name="Path 476" d="M17.183,29.045A1.043,1.043,0,0,1,18.225,28H27.14a1.042,1.042,0,0,1,1.042,1.042V29.5a5.5,5.5,0,0,1-11,0Z" fill="#fff"/>
        <path id="Path_477" data-name="Path 477" d="M7.183,21.006v0A16,16,0,0,1,31,7.036,17.85,17.85,0,0,1,13.183,22,18.434,18.434,0,0,1,7.183,21.006Z" fill="#3c372c"/>
    </g>
</svg>
